X:1
T:Bairisches Volksliedchen.
T:Bairisches Volksliedchen.
T:Bewegung eines Ländlers.
%%score { ( 1 4 ) | ( 2 3 ) }
L:1/8
Q:1/4=80
M:3/8
K:G
V:1 treble nm="Piano" snm="Pno."
V:4 treble 
V:2 bass 
V:3 bass 
V:1
!mf! D | GGG | (F>ED) | [DFc][DFc][DFc] | [DGB]2!<(! B | [=FB][FB][FB]!<)! | ([Ec]>[DB][CA]) | %7
w: 1.~Bin|ein- und aus-|gan- ge im|gan- ze Ti-|rol, jestz|g'fall' mer die|bai- ri- sche|
 [B,G]!>(![CA][CF] | [B,G]2!>)!!p! (G/F/) | (EFG) | ([FA]>GF) | (EFG) | (BA) D | (D/c/) (!>!c>D) | %14
w: Maid- le so|wohl. O *|Dien- derl, dei|Ju- ged, dei|schö- ne Ma-|nier, * dei|kreuz- * bra- ve|
 (D/B/) (BA/G/) | (F/G/A/B/c/F/ | G) z/ (D/E/F/) | (G/d/B/G/d) | (F/d/c/A/f) | (e/d/c/D/E/F/) | %20
w: Tu- * ged hot mi|her * g'fü- hrt zu *|dir. Di ri di|oi * dia * u,|oi * dia * u,|oi * dia * ri di|
 (G/d/B/G/g) |!f! (G/d/B/G/d) | (F/d/c/A/f) | (e/d/c/D/E/F/ | G2) |] %25
w: oi * dia * u,|oi * dia * u,|oi * dia * u,|oi * dia * ri di|o.|
V:2
 z | G,,[D,G,B,][D,G,B,] | [D,,D,][D,F,A,][D,F,A,] | [D,,D,][D,A,][D,A,] | G,,[D,G,B,][D,G,B,] | %5
 G,,[G,D][G,D] | [C,C]2 [C,,C,] | [D,,D,]2 [D,,D,] | G,,2 z | (^CDE) | [A,D]2 [A,D] | (^CDE) | %12
 [D,D]2 z | [D,,D,][D,F,C][D,F,C] | G,,[D,G,B,][D,G,B,] | [D,,D,][D,F,C][D,F,C] | G,,[D,G,B,] z | %17
"_100 Volsklieder (Silcher) – str. 8" G,,[D,G,B,][D,G,B,] | [D,,D,][D,A,C][D,A,C] | %19
 [D,,D,][D,A,C][D,A,C] | G,,[D,G,B,][D,G,B,] | G,,[D,G,B,][D,G,B,] | [D,,D,][D,A,C][D,A,C] | %23
 [D,,D,][D,A,C][D,A,C] | [G,B,]2 |] %25
V:3
 x | x3 | x3 | x3 | x3 | x3 | x3 | x3 | x3 | A,2 A, | x3 | A,2 A, | x3 | x3 | x3 | x3 | x3 | x3 | %18
 x3 | x3 | x3 | x3 | x3 | x3 | x2 |] %25
V:4
 x | x3 | x3 | x3 | x3 | x3 | x3 | x3 | x3 | x3 | x3 | x3 | F2 x | x3 | x3 | x3 | x3 | x3 | x3 | %19
 x3 | x3 | x3 | x3 | x3 | x2 |] %25

